HTML/img/Semaphore/Semaphore_Lima.svg

<?xml version="1.0" encoding="UTF-8" standalone="no"?>
<!-- Created with Inkscape (http://www.inkscape.org/) -->
<svg
   xmlns:dc="http://purl.org/dc/elements/1.1/"
   xmlns:cc="http://web.resource.org/cc/"
   xmlns:rdf="http://www.w3.org/1999/02/22-rdf-syntax-ns#"
   xmlns:svg="http://www.w3.org/2000/svg"
   xmlns="http://www.w3.org/2000/svg"
   xmlns:sodipodi="http://inkscape.sourceforge.net/DTD/sodipodi-0.dtd"
   xmlns:inkscape="http://www.inkscape.org/namespaces/inkscape"
   width="600"
   height="500"
   id="svg2"
   sodipodi:version="0.32"
   inkscape:version="0.43"
   version="1.0"
   sodipodi:docbase="C:\Documents and Settings\David Nelson\Archives\Svg"
   sodipodi:docname="Semaphore Lima.svg">
  <defs
     id="defs4" />
  <sodipodi:namedview
     id="base"
     pagecolor="#ffffff"
     bordercolor="#666666"
     borderopacity="1.0"
     inkscape:pageopacity="0.0"
     inkscape:pageshadow="2"
     inkscape:zoom="0.5"
     inkscape:cx="277.85308"
     inkscape:cy="120.82915"
     inkscape:document-units="px"
     inkscape:current-layer="layer4"
     showgrid="true"
     inkscape:grid-points="true"
     inkscape:window-width="756"
     inkscape:window-height="540"
     inkscape:window-x="365"
     inkscape:window-y="436" />
  <metadata
     id="metadata7">
    <rdf:RDF>
      <cc:Work
         rdf:about="">
        <dc:format>image/svg+xml</dc:format>
        <dc:type
           rdf:resource="http://purl.org/dc/dcmitype/StillImage" />
      </cc:Work>
    </rdf:RDF>
  </metadata>
  <g
     inkscape:label="Head and Torso"
     inkscape:groupmode="layer"
     id="layer1">
    <path
       sodipodi:type="arc"
       style="opacity:1;fill:#000000;fill-opacity:1;fill-rule:evenodd;stroke:none;stroke-width:2.5;stroke-miterlimit:4;stroke-dasharray:none;stroke-opacity:1"
       id="path7712"
       sodipodi:cx="250"
       sodipodi:cy="200"
       sodipodi:rx="25"
       sodipodi:ry="25"
       d="M 275 200 A 25 25 0 1 1  225,200 A 25 25 0 1 1  275 200 z"
       transform="translate(50,10)" />
    <rect
       style="opacity:1;fill:#000000;fill-opacity:1;fill-rule:evenodd;stroke:none;stroke-width:2.5;stroke-miterlimit:4;stroke-dasharray:none;stroke-opacity:1"
       id="rect7718"
       width="70"
       height="160"
       x="265"
       y="240"
       rx="20"
       ry="21.333334" />
  </g>
  <g
     inkscape:groupmode="layer"
     id="layer4"
     inkscape:label="Left Hand"
     style="display:inline">
    <g
       id="g11864">
      <rect
         style="fill:#000000;fill-opacity:1;fill-rule:evenodd;stroke:none;stroke-width:2.5;stroke-miterlimit:4;stroke-dasharray:none;stroke-opacity:1"
         id="rect7980"
         width="70.000023"
         height="20.000006"
         x="60.710747"
         y="414.26401"
         rx="10.000003"
         ry="10.000003"
         transform="matrix(0.707107,-0.707107,0.707107,0.707107,0,0)" />
      <rect
         style="fill:#000000;fill-opacity:1;fill-rule:evenodd;stroke:#000000;stroke-width:0.9999997;stroke-miterlimit:4;stroke-dasharray:none;stroke-opacity:1"
         id="rect7982"
         width="200.00006"
         height="10.000003"
         x="120.71076"
         y="419.26401"
         transform="matrix(0.707107,-0.707107,0.707107,0.707107,0,0)" />
      <path
         id="path7986"
         d="M 530.31228,204.03794 L 466.67265,140.39831 L 530.31228,76.758685 L 593.95191,140.39831 L 530.31228,204.03794 z "
         style="fill:#ffff00;fill-opacity:1;fill-rule:evenodd;stroke:none;stroke-width:0.5;stroke-miterlimit:4;stroke-opacity:1" />
      <path
         style="fill:#ff0000;fill-opacity:1;fill-rule:evenodd;stroke:none;stroke-width:0.5;stroke-miterlimit:4;stroke-opacity:1"
         d="M 466.67265,140.39831 L 530.31228,76.758685 L 593.95191,140.39831 L 466.67265,140.39831 z "
         id="path7988" />
      <path
         style="fill:#ffff00;fill-opacity:0;fill-rule:evenodd;stroke:#000000;stroke-width:1;stroke-linejoin:round;stroke-miterlimit:4;stroke-dasharray:none;stroke-opacity:1"
         d="M 530.31228,204.03794 L 466.67265,140.39831 L 530.31228,76.758685 L 593.95191,140.39831 L 530.31228,204.03794 z "
         id="path11842" />
    </g>
  </g>
  <g
     inkscape:groupmode="layer"
     id="layer5"
     inkscape:label="Right Hand"
     style="display:inline">
    <g
       id="g12037">
      <rect
         ry="10.000003"
         rx="10.000003"
         y="-363.55347"
         x="-9.9999323"
         height="20.000006"
         width="70.000023"
         id="rect7827"
         style="fill:#000000;fill-opacity:1;fill-rule:evenodd;stroke:none;stroke-width:2.5;stroke-miterlimit:4;stroke-dasharray:none;stroke-opacity:1"
         transform="matrix(-0.707107,0.707107,-0.707107,-0.707107,0,0)" />
      <rect
         y="-358.55347"
         x="50.000088"
         height="10.000003"
         width="200.00006"
         id="rect7829"
         style="fill:#000000;fill-opacity:1;fill-rule:evenodd;stroke:#000000;stroke-width:0.9999997;stroke-miterlimit:4;stroke-dasharray:none;stroke-opacity:1"
         transform="matrix(-0.707107,0.707107,-0.707107,-0.707107,0,0)" />
      <path
         style="fill:#ffff00;fill-opacity:1;fill-rule:evenodd;stroke:none;stroke-width:0.5;stroke-miterlimit:4;stroke-opacity:1"
         d="M 204.03804,430.31241 L 140.39841,493.95205 L 76.758785,430.31241 L 140.39841,366.67278 L 204.03804,430.31241 z "
         id="path7833" />
      <path
         id="path7835"
         d="M 140.39841,493.95205 L 76.758785,430.31241 L 140.39841,366.67278 L 140.39841,493.95205 z "
         style="fill:#ff0000;fill-opacity:1;fill-rule:evenodd;stroke:none;stroke-width:0.5;stroke-miterlimit:4;stroke-opacity:1" />
      <path
         id="path11997"
         d="M 204.03804,430.31241 L 140.39841,493.95205 L 76.758785,430.31241 L 140.39841,366.67278 L 204.03804,430.31241 z "
         style="fill:#ffff00;fill-opacity:0;fill-rule:evenodd;stroke:#000000;stroke-width:1;stroke-linejoin:round;stroke-miterlimit:4;stroke-dasharray:none;stroke-opacity:1" />
    </g>
  </g>
</svg>

<svg xmlns="http://www.w3.org/2000/svg" width="600" height="500" version="1">
    <g fill-rule="evenodd">
        <path d="M325 210a25 25 0 1 1-50 0 25 25 0 1 1 50 0z"/>
        <rect width="70" height="160" x="265" y="240" rx="20" ry="21.333"/>
    </g>
    <rect width="70" height="20" x="60.711" y="414.264" fill-rule="evenodd" rx="10" ry="10" transform="rotate(-45)"/>
    <path fill-rule="evenodd" stroke="#000" d="M381.82 211.109L523.242 69.688l7.07 7.07-141.42 141.422z"/>
    <path fill="#ff0" fill-rule="evenodd" d="M530.312 204.038l-63.64-63.64 63.64-63.64 63.64 63.64-63.64 63.64z"/>
    <path fill="red" fill-rule="evenodd" d="M466.673 140.398l63.64-63.64 63.639 63.64h-127.28z"/>
    <path fill="none" stroke="#000" stroke-linejoin="round" d="M530.312 204.038l-63.64-63.64 63.64-63.64 63.64 63.64-63.64 63.64z"/>
    <g>
        <rect width="70" height="20" x="-10" y="-363.553" fill-rule="evenodd" rx="10" ry="10" transform="rotate(135)"/>
        <path fill-rule="evenodd" stroke="#000" d="M218.18 288.89L76.759 430.313l-7.071-7.071 141.42-141.421z"/>
        <path fill="#ff0" fill-rule="evenodd" d="M204.038 430.312l-63.64 63.64-63.64-63.64 63.64-63.64 63.64 63.64z"/>
        <path fill="red" fill-rule="evenodd" d="M140.398 493.952l-63.64-63.64 63.64-63.64v127.28z"/>
        <path fill="none" stroke="#000" stroke-linejoin="round" d="M204.038 430.312l-63.64 63.64-63.64-63.64 63.64-63.64 63.64 63.64z"/>
    </g>
</svg>
